symbols/web/short_text/materialsymbolsrounded/short_text_wght600grad200_24px.svg

<svg xmlns="http://www.w3.org/2000/svg" height="24" width="24"><path d="M4.9 11q-.65 0-1.088-.45-.437-.45-.437-1.075 0-.65.437-1.1.438-.45 1.088-.45h14.2q.65 0 1.088.45.437.45.437 1.1 0 .625-.437 1.075-.438.45-1.088.45Zm0 5.075q-.65 0-1.088-.45-.437-.45-.437-1.1 0-.625.437-1.075Q4.25 13 4.9 13H13q.625 0 1.075.45.45.45.45 1.075 0 .65-.45 1.1-.45.45-1.075.45Z"/></svg>

<svg xmlns="http://www.w3.org/2000/svg" height="24" width="24"><path d="M4.9 11Q4.25 11 3.812 10.55Q3.375 10.1 3.375 9.475Q3.375 8.825 3.812 8.375Q4.25 7.925 4.9 7.925H19.1Q19.75 7.925 20.188 8.375Q20.625 8.825 20.625 9.475Q20.625 10.1 20.188 10.55Q19.75 11 19.1 11ZM4.9 16.075Q4.25 16.075 3.812 15.625Q3.375 15.175 3.375 14.525Q3.375 13.9 3.812 13.45Q4.25 13 4.9 13H13Q13.625 13 14.075 13.45Q14.525 13.9 14.525 14.525Q14.525 15.175 14.075 15.625Q13.625 16.075 13 16.075Z"/></svg>
